assets/img/ico-miniphone.svg

<?xml version="1.0" encoding="UTF-8"?>
<svg width="16px" height="16px" viewBox="0 0 16 16" version="1.1" xmlns="http://www.w3.org/2000/svg" xmlns:xlink="http://www.w3.org/1999/xlink">
    <!-- Generator: Sketch 50.2 (55047) - http://www.bohemiancoding.com/sketch -->
    <title>Shape</title>
    <desc>Created with Sketch.</desc>
    <defs></defs>
    <g id="Symbols" stroke="none" stroke-width="1" fill="none" fill-rule="evenodd">
        <path d="M14.2857143,0 L1.71428571,0 C0.7675,0 0,0.7675 0,1.71428571 L0,14.2857143 C0,15.2325 0.7675,16 1.71428571,16 L14.2857143,16 C15.2325,16 16,15.2325 16,14.2857143 L16,1.71428571 C16,0.7675 15.2325,0 14.2857143,0 Z M3.35714286,13.7142857 C3.10596429,13.7142857 2.89082143,13.54025 2.83514286,13.2990357 L2.2995,10.9776071 C2.24120406,10.7249889 2.37216982,10.466878 2.61046429,10.36475 L5.11039286,9.29335714 C5.32977778,9.19934157 5.58489767,9.26180357 5.73603571,9.44653571 L6.84307143,10.7995714 C8.59107143,9.97946429 9.99653571,8.55464286 10.7995357,6.84314286 L9.44646429,5.73610714 C9.26174281,5.58496237 9.19928272,5.32985025 9.29328571,5.11046429 L10.3647143,2.61053571 C10.4668422,2.37224124 10.7249532,2.24127549 10.9775714,2.29957143 L13.299,2.83521429 C13.542081,2.89125353 13.7142909,3.10768589 13.7142857,3.35714286 C13.7142857,9.08185714 9.07339286,13.7142857 3.35714286,13.7142857 Z" id="Shape" fill="#A6A9AB" fill-rule="nonzero"></path>
    </g>
</svg>

<svg width="16" height="16" viewBox="0 0 16 16" xmlns="http://www.w3.org/2000/svg"><title>Shape</title><path d="M14.286 0H1.714C.767 0 0 .767 0 1.714v12.572C0 15.233.767 16 1.714 16h12.572c.947 0 1.714-.768 1.714-1.714V1.714C16 .767 15.232 0 14.286 0zM3.357 13.714a.536.536 0 0 1-.522-.415L2.3 10.978a.536.536 0 0 1 .31-.613l2.5-1.072a.536.536 0 0 1 .626.154L6.843 10.8A8.28 8.28 0 0 0 10.8 6.843L9.446 5.736a.536.536 0 0 1-.153-.626l1.072-2.5a.536.536 0 0 1 .613-.31l2.321.535a.536.536 0 0 1 .415.522c0 5.725-4.64 10.357-10.357 10.357z" fill="#A6A9AB" fill-rule="nonzero"/></svg>
